assets/location-marker.svg

<svg xmlns="http://www.w3.org/2000/svg" fill="none" viewBox="0 0 17 27">
  <path stroke="#2A2238" d="M13.5689 17.3174c-1.5225 3.0611-3.3615 6.1326-4.82242 8.3951-1.49421-2.2692-3.44803-5.3438-5.08201-8.4077-.89598-1.6801-1.69096-3.348-2.26084-4.8718C.830532 10.9006.5 9.55251.5 8.5c0-4.42904 3.31622-8 8-8 4.6838 0 8 3.57096 8 8 0 1.05972-.3047 2.4127-.8336 3.945-.5262 1.5247-1.2623 3.193-2.0975 4.8724Z"/>
  <path stroke="#2A2238" d="M13 8c0 2.4853-2.0147 4.5-4.50003 4.5-2.48528 0-4.5-2.0147-4.5-4.5 0-2.48528 2.01472-4.5 4.5-4.5C10.9853 3.5 13 5.51472 13 8Z"/>
</svg>

<svg width="17" height="27" viewBox="0 0 17 27" fill="none" xmlns="http://www.w3.org/2000/svg">
<path d="M13.5689 17.3174C12.0464 20.3785 10.2074 23.45 8.74648 25.7125C7.25227 23.4433 5.29845 20.3687 3.66447 17.3048C2.76849 15.6247 1.97351 13.9568 1.40363 12.433C0.830532 10.9006 0.5 9.55251 0.5 8.5C0.5 4.07096 3.81622 0.5 8.5 0.5C13.1838 0.5 16.5 4.07096 16.5 8.5C16.5 9.55972 16.1953 10.9127 15.6664 12.445C15.1402 13.9697 14.4041 15.638 13.5689 17.3174Z" stroke="#2A2238"/>
<path d="M13 8C13 10.4853 10.9853 12.5 8.49997 12.5C6.01469 12.5 3.99997 10.4853 3.99997 8C3.99997 5.51472 6.01469 3.5 8.49997 3.5C10.9853 3.5 13 5.51472 13 8Z" stroke="#2A2238"/>
</svg>
